X: 1
T: Michaels Mazurka
C: Michael Ferrie
M: 3/4
L: 1/8
Q: 1/4=120
K: G
G3G A/B/c|B2 B3/2B/ A/G/F|EG GB AG|Fd Dc DF|
G2 GA Bc|Bd dc BG|Ec cB AF|G4 D2:|
K: Gm
|:G2GA Bc|d2dc BG|A^F AF DF|GA B/c/d g2|
DG GA Bc|d3c BG|A^F AF DF|[1G4 D2:|[2G4 d/=e/^f|
K: G
|:g6|d4 cB|A2a3g|fd ^cd ef|g4b2|g4 d/c/B|
A2a3g|fd cB AF|G2AB G2|A2Bc A2|B2cd B2|c2de c2|
d2g2 eg|[1f3g a/g/f|g3a gf|[1g4 d/e/f:|[2f2d2 c/B/A|G3B A/G/F|G6|]
